X:12111
T:Nun-y daba'l sol
C:Tradicional
S:Música Tradicional Asturiana, (C) Tello & Tito. Asturies, 2001.
S:http://pagina.de/MusTradAst <telloytito@asturies.org>
O:Asturies
Z:Asturias, canciones
M:2/4
L:1/8
Q:1/4=110
K:C
|GG GE|D2 DE|F2 ED|C2 C2|
GG GE|D2 DE|F2 ED|C2 C2-|C2 GG|
c2 Bc|A2 F2|A2 cB|G2 E2-|E2 GG|
c2 Bc|A2 F2|A2 cB|G2 E2|GG GE|
D2 DE|F2 ED|C2 C2|GG GE|
D2 DE|F2 ED|C2 C2-|C2 z2||

